X:1
T:Title
%%score 1 2 3 4
L:1/8
M:4/4
K:Eb
V:1 treble nm="Church Organ, Church Organ"
V:2 treble nm="French Horn, French Horn"
V:3 treble nm="Trombone, Trombone"
V:4 bass nm="Tuba, Tuba"
V:1
 EG B2 B2 B=A | Be B2- B/ z/ G B2 | G2 F2 FG A2 | ABdc BA G2 | EG B2 B2 B=A | Be B2- B/ z/ G B2 | %6
w: By~Adam~Geibel * * * * *||||||
 G2 F2- F/ z/ F DF | Bd f2- f/ z/ =A B2 | B2 B2- B/ z/ B c2 | d2 e2 e2 e2 | f2 e4 d2- | d2 e6 | %12
w: ||||||
 B2 B2 z2 B2 | z2 B2 z2 B2 | e2 d2- d/ z/ d c2 | d2 e2 G2 B2 | c2 B2 z2 B2 | z2 B2 e2 e2 | %18
w: ||||||
 f2 e4 d2- | d2 e2 z4 | B2 B2 z2 B2 | z2 B2 z2 B2 | e2 d2- d/ z/ d c2- | cd e2 G2 B2 | %24
w: ||||||
 c2 B2 z2 B2 | z2 B2 e2 e2 | f2 e4 d2- | d2 e2 d2 e2 | d2 e2 d2 e2 | d2 e2 z4 | z2 e6 | e2 [eg]6 |] %32
w: ||||||||
V:2
 E2 G2 G2 G_G | G2 G2- G/ z/ E G2 | E2 D2 DE F2 | FGBA GF E2 | E2 G2 G2 G_G | G2 G2- G/ z/ E G2 | %6
w: Why~ ring~ these~ mer *|ry~ bells~ * to day?~|Why~ pour~ they~ * forth~|their~ * joy * ous~ * lay?~|It~ is~ the~ day~ *|our~ Christ~ * was~ born.~|
 E2 D2- D/ z/ D DF | F2 F2- F/ z/ E D2 | F2 F2- F/ z/ F F2 | B2 B2 G2 A2 | A2 G4 F2- | F2 G6 | %12
w: The~ bright~ * and~ hap *|py~ Christ * mas~ morn.~|And~ thus~ * they~ bear~|the~ glad some~ strain,~|O'er~ hill~ and~|* plain.~|
 G2 A2 z2 A2 | z2 G2 z2 G2 | G2 A2- A/ z/ A A2 | A2 G2 E2 G2 | G2 A2 z2 A2 | z2 G2 G2 A2 | %18
w: Then~ ring,~ ring,~|ring,~ ring,~|Then~ ring,~ * ye~ me|rry~ Christ mas~ bells,~|Then~ ring,~ ring~|ring,~ ye~ me|
 A2 G4 F2- | F2 G2 z4 | G2 A2 z2 A2 | z2 G2 z2 G2 | G2 F2- F/ z/ F A2- | AA G2 E2 G2 | %24
w: rry~ Christ mas~|* bells,~|Then~ ring,~ ring,~|ring,~ ring,~|Then~ ring,~ * ye~ mer|* ry~ Christ mas~ bells,~|
 G2 A2 z2 A2 | z2 G2 G2 A2 | A2 G4 F2- | F2 G2 F2 G2 | F2 G2 F2 G2 | F2 G2 z4 | z2 A6 | A2 G6 |] %32
w: Then~ ring,~ ring,~|ring,~ ye~ me|rry~ Christ mas~|* bells,~ Ye~ mer|ry~ bells,~ ye~ mer|ry~ bells,~|Christ|mas~ bells.~|
V:3
 G,B, E2 E2 E2 | E2 E2- E/ z/[K:bass] B, E2 | B,2 B,2 B,2 B,2 | B,2 B,2 B,2 B,2 | %4
 G,B,[K:treble] E2 E2 E2 | E2 E2- E/ z/[K:bass] B, E2 | B,2 B,2- B,/ z/ B, B,2 | %7
 DB, =A,2- A,/ z/[K:treble] C B,2 | D2 D2- D/ z/ D E2 | F2 E2 _D2 C2 | C2[K:bass] B,4 B,2- | %11
 B,2 B,6 | E2[K:treble] F2 z2 F2 | z2 E2 z2[K:bass] E2 | B,2 B,2- B,/ z/ B, B,2 | %15
 B,2[K:treble] B,2 B,2 E2 | E2 F2 z2 F2 | z2 E2 E2 E2 | C2 B,4 B,2- | B,2 B,2 z4 | E2 F2 z2 F2 | %21
 z2 E2 z2[K:bass] E2 | B,2 B,2- B,/ z/ B, B,2- | B,B,[K:treble] B,2 B,2 E2 | E2 F2 z2 F2 | %25
 z2 E2 E2 E2 | C2 B,4[K:bass] B,2- | B,2 B,2 B,2 B,2 | B,2 B,2 B,2 B,2 | B,2 B,2 z4 | z2 C6 | %31
 C2 B,6 |] %32
V:4
 E,2 E,2 E,2 E,2 | E,2 E,2- E,/ z/ E, E,2 | E,2 B,,2 B,,2 B,,2 | B,,2 B,,2 B,,2 E,2 | %4
 E,2 E,2 E,2 E,2 | E,2 E,2- E,/ z/ E, E,2 | E,2 F,2- F,/ z/ F, F,2 | F,2 F,2- F,/ z/ F, B,,2 | %8
 B,2 B,2- B,/ z/ B, =A,2 | A,2 G,2 E,2 A,2 | F,2 B,4 B,,2- | B,,2 E,6 | E,2 E,2 C,2 E,2 | %13
 C,2 E,2 C,2 E,2 | E,2 F,2- F,/ z/ F, B,,2 | B,,2 E,2 E,2 E,2 | E,2 D,2 B,,2 D,2 | %17
 B,,2 E,2 _D2 C2 | A,2 B,4 B,,2- | B,,2 E,2 B,2 G,2 | E,2 D,2 B,,2 D,2 | B,,2 E,2 B,,2 E,2 | %22
 E,2 F,2- F,/ z/ F, B,,2- | B,,B,, E,2 E,2 E,2 | E,2 D,2 B,,2 D,2 | B,,2 E,2 _D2 C2 | %26
 A,2 B,4 B,,2- | B,,2 E,2 B,,2 E,2 | B,,2 E,2 B,,2 E,2 | B,,2 E,2 z4 | z2 A,6 | A,2 E,6 |] %32

